X:2
T:All the Teas
R:reel
C:Dougie MacDonald
O:20th century Cape Breton
D:A Miner, Dougie MacDonald, 1998
N:Bookings,Mechanicals etc.
N:..... Dougie MacDonald <dougie@cranfordpub.com>
N:More tunes and information <http://www.cranfordpub.com/dougie>
Z:This abc transcription is for personal use only,
Z:provided this notice remains attached.
Z:Used by permission of the composers.
Z:Paul Stewart Cranford 
Q:333
L:1/8
M:C|
K:Gdor
Bc|:dG G2 ^FGDF|G2 GA BdcB|AFF2 EFCB,|A,CFA dcAc|!
dG G2 ^FGDF|G2 GA BdcB|AFAc fcAc|[1dcAc GABc:|[2dcAc G2||!
|:ga|bg g2 dgdc|BGBd gdbg|aff2 cfcB|AFAc fcaf|!
bg g2 dgdc|BGBd gdge|fc c/c/c dcAc|dcAF G2:||
P:final time through tune uses tag 2ND ending in B PART
(3(ABc)|:dG G2 ^FGDF|G2 GA BdcB|AFF2 EFCB,|A,CFA dcAc|!
dG G2 ^FGDF|G2 GA BdcB|AFAc fcAc|[1dcAc GABc:|[2dcAc G2||!
|:ga|bg g2 dgdc|BGBd gdbg|aff2 cfcB|AFAc fcaf|!
[1bg g2 dgdc|BGBd gdge|fc c/c/c dcAc|dcAF G2:||!
[2bg g/g/g af f/f/f|gd d/d/d fc c/c/c|dB B/B/B AGFA|G4|]!
